images/3232812.svg

<?xml version="1.0" encoding="UTF-8"?>
<svg xmlns="http://www.w3.org/2000/svg" xmlns:xlink="http://www.w3.org/1999/xlink" width="300pt" height="300pt" viewBox="0 0 300 300" version="1.1">
<defs>
<g>
<symbol overflow="visible" id="glyph0-0">
<path style="stroke:none;" d="M 0.59375 2.125 L 0.59375 -8.46875 L 6.59375 -8.46875 L 6.59375 2.125 Z M 1.265625 1.453125 L 5.9375 1.453125 L 5.9375 -7.78125 L 1.265625 -7.78125 Z M 1.265625 1.453125 "/>
</symbol>
<symbol overflow="visible" id="glyph0-1">
<path style="stroke:none;" d="M 4.734375 -7.953125 C 3.867188 -7.953125 3.179688 -7.628906 2.671875 -6.984375 C 2.171875 -6.347656 1.921875 -5.472656 1.921875 -4.359375 C 1.921875 -3.265625 2.171875 -2.394531 2.671875 -1.75 C 3.179688 -1.113281 3.867188 -0.796875 4.734375 -0.796875 C 5.585938 -0.796875 6.265625 -1.113281 6.765625 -1.75 C 7.273438 -2.394531 7.53125 -3.265625 7.53125 -4.359375 C 7.53125 -5.472656 7.273438 -6.347656 6.765625 -6.984375 C 6.265625 -7.628906 5.585938 -7.953125 4.734375 -7.953125 Z M 4.734375 -8.90625 C 5.953125 -8.90625 6.925781 -8.492188 7.65625 -7.671875 C 8.394531 -6.847656 8.765625 -5.742188 8.765625 -4.359375 C 8.765625 -2.984375 8.394531 -1.882812 7.65625 -1.0625 C 6.925781 -0.238281 5.953125 0.171875 4.734375 0.171875 C 3.503906 0.171875 2.519531 -0.238281 1.78125 -1.0625 C 1.039062 -1.882812 0.671875 -2.984375 0.671875 -4.359375 C 0.671875 -5.742188 1.039062 -6.847656 1.78125 -7.671875 C 2.519531 -8.492188 3.503906 -8.90625 4.734375 -8.90625 Z M 4.734375 -8.90625 "/>
</symbol>
<symbol overflow="visible" id="glyph0-2">
<path style="stroke:none;" d="M 1.171875 -8.75 L 2.765625 -8.75 L 6.65625 -1.4375 L 6.65625 -8.75 L 7.796875 -8.75 L 7.796875 0 L 6.203125 0 L 2.328125 -7.3125 L 2.328125 0 L 1.171875 0 Z M 1.171875 -8.75 "/>
</symbol>
<symbol overflow="visible" id="glyph0-3">
<path style="stroke:none;" d="M 1.171875 -8.75 L 2.359375 -8.75 L 2.359375 -5.15625 L 6.65625 -5.15625 L 6.65625 -8.75 L 7.84375 -8.75 L 7.84375 0 L 6.65625 0 L 6.65625 -4.171875 L 2.359375 -4.171875 L 2.359375 0 L 1.171875 0 Z M 1.171875 -8.75 "/>
</symbol>
</g>
</defs>
<g id="surface38045">
<rect x="0" y="0" width="300" height="300" style="fill:rgb(100%,100%,100%);fill-opacity:1;stroke:none;"/>
<path style="fill:none;stroke-width:1.2;stroke-linecap:butt;stroke-linejoin:miter;stroke:rgb(0%,0%,0%);stroke-opacity:1;stroke-miterlimit:10;" d="M 35.25 226.023438 L 39.742188 212.054688 "/>
<path style="fill:none;stroke-width:1.2;stroke-linecap:butt;stroke-linejoin:miter;stroke:rgb(100%,0%,0%);stroke-opacity:1;stroke-miterlimit:10;" d="M 39.742188 212.054688 L 44.238281 198.089844 "/>
<path style="fill:none;stroke-width:1.2;stroke-linecap:butt;stroke-linejoin:miter;stroke:rgb(100%,0%,0%);stroke-opacity:1;stroke-miterlimit:10;" d="M 44.238281 198.089844 L 58.582031 194.996094 "/>
<path style="fill:none;stroke-width:1.2;stroke-linecap:butt;stroke-linejoin:miter;stroke:rgb(0%,0%,0%);stroke-opacity:1;stroke-miterlimit:10;" d="M 58.582031 194.996094 L 72.925781 191.902344 "/>
<path style=" stroke:none;fill-rule:nonzero;fill:rgb(100%,100%,100%);fill-opacity:1;" d="M 39.238281 191.089844 L 49.238281 191.089844 L 49.238281 205.089844 L 39.238281 205.089844 Z M 39.238281 191.089844 "/>
<g style="fill:rgb(100%,0%,0%);fill-opacity:1;">
  <use xlink:href="#glyph0-1" x="39.238281" y="202.228516"/>
</g>
<path style="fill:none;stroke-width:1.2;stroke-linecap:butt;stroke-linejoin:miter;stroke:rgb(0%,0%,0%);stroke-opacity:1;stroke-miterlimit:10;" d="M 72.925781 191.902344 L 81.914062 163.96875 "/>
<path style="fill:none;stroke-width:1.2;stroke-linecap:butt;stroke-linejoin:miter;stroke:rgb(0%,0%,0%);stroke-opacity:1;stroke-miterlimit:10;" d="M 81.914062 163.96875 L 96.257812 160.875 "/>
<path style="fill:none;stroke-width:1.2;stroke-linecap:butt;stroke-linejoin:miter;stroke:rgb(0%,0%,100%);stroke-opacity:1;stroke-miterlimit:10;" d="M 96.257812 160.875 L 110.601562 157.785156 "/>
<path style="fill:none;stroke-width:1.2;stroke-linecap:butt;stroke-linejoin:miter;stroke:rgb(0%,0%,100%);stroke-opacity:1;stroke-miterlimit:10;" d="M 110.601562 157.785156 L 115.09375 143.816406 "/>
<path style="fill:none;stroke-width:1.2;stroke-linecap:butt;stroke-linejoin:miter;stroke:rgb(0%,0%,0%);stroke-opacity:1;stroke-miterlimit:10;" d="M 115.09375 143.816406 L 119.589844 129.847656 "/>
<path style=" stroke:none;fill-rule:nonzero;fill:rgb(100%,100%,100%);fill-opacity:1;" d="M 101.601562 150.785156 L 119.601562 150.785156 L 119.601562 164.785156 L 101.601562 164.785156 Z M 101.601562 150.785156 "/>
<g style="fill:rgb(0%,0%,100%);fill-opacity:1;">
  <use xlink:href="#glyph0-2" x="101.601562" y="161.923828"/>
  <use xlink:href="#glyph0-3" x="110.578125" y="161.923828"/>
</g>
<path style="fill:none;stroke-width:1.2;stroke-linecap:butt;stroke-linejoin:miter;stroke:rgb(0%,0%,0%);stroke-opacity:1;stroke-miterlimit:10;" d="M 119.589844 129.847656 L 109.738281 118.972656 "/>
<path style="fill:none;stroke-width:1.2;stroke-linecap:butt;stroke-linejoin:miter;stroke:rgb(0%,0%,100%);stroke-opacity:1;stroke-miterlimit:10;" d="M 109.738281 118.972656 L 99.890625 108.097656 "/>
<path style="fill:none;stroke-width:1.2;stroke-linecap:butt;stroke-linejoin:miter;stroke:rgb(0%,0%,0%);stroke-opacity:1;stroke-miterlimit:10;" d="M 122.738281 123.039062 L 114.859375 114.335938 "/>
<path style="fill:none;stroke-width:1.2;stroke-linecap:butt;stroke-linejoin:miter;stroke:rgb(0%,0%,100%);stroke-opacity:1;stroke-miterlimit:10;" d="M 114.859375 114.335938 L 106.976562 105.636719 "/>
<path style="fill:none;stroke-width:1.2;stroke-linecap:butt;stroke-linejoin:miter;stroke:rgb(0%,0%,0%);stroke-opacity:1;stroke-miterlimit:10;" d="M 148.277344 123.664062 L 119.589844 129.847656 "/>
<path style="fill:none;stroke-width:1.2;stroke-linecap:butt;stroke-linejoin:miter;stroke:rgb(0%,0%,100%);stroke-opacity:1;stroke-miterlimit:10;" d="M 99.890625 108.097656 L 104.382812 94.128906 "/>
<path style="fill:none;stroke-width:1.2;stroke-linecap:butt;stroke-linejoin:miter;stroke:rgb(0%,0%,0%);stroke-opacity:1;stroke-miterlimit:10;" d="M 104.382812 94.128906 L 108.878906 80.160156 "/>
<path style=" stroke:none;fill-rule:nonzero;fill:rgb(100%,100%,100%);fill-opacity:1;" d="M 95.890625 101.097656 L 104.890625 101.097656 L 104.890625 115.097656 L 95.890625 115.097656 Z M 95.890625 101.097656 "/>
<g style="fill:rgb(0%,0%,100%);fill-opacity:1;">
  <use xlink:href="#glyph0-2" x="95.890625" y="112.236328"/>
</g>
<path style="fill:none;stroke-width:1.2;stroke-linecap:butt;stroke-linejoin:miter;stroke:rgb(0%,0%,0%);stroke-opacity:1;stroke-miterlimit:10;" d="M 108.878906 80.160156 L 123.222656 77.066406 "/>
<path style="fill:none;stroke-width:1.2;stroke-linecap:butt;stroke-linejoin:miter;stroke:rgb(0%,0%,100%);stroke-opacity:1;stroke-miterlimit:10;" d="M 123.222656 77.066406 L 137.566406 73.976562 "/>
<path style="fill:none;stroke-width:1.2;stroke-linecap:butt;stroke-linejoin:miter;stroke:rgb(0%,0%,0%);stroke-opacity:1;stroke-miterlimit:10;" d="M 113.203125 86.292969 L 124.675781 83.816406 "/>
<path style="fill:none;stroke-width:1.2;stroke-linecap:butt;stroke-linejoin:miter;stroke:rgb(0%,0%,100%);stroke-opacity:1;stroke-miterlimit:10;" d="M 124.675781 83.816406 L 136.152344 81.34375 "/>
<path style="fill:none;stroke-width:1.2;stroke-linecap:butt;stroke-linejoin:miter;stroke:rgb(0%,0%,100%);stroke-opacity:1;stroke-miterlimit:10;" d="M 137.566406 73.976562 L 147.414062 84.851562 "/>
<path style="fill:none;stroke-width:1.2;stroke-linecap:butt;stroke-linejoin:miter;stroke:rgb(0%,0%,0%);stroke-opacity:1;stroke-miterlimit:10;" d="M 147.414062 84.851562 L 157.265625 95.726562 "/>
<path style=" stroke:none;fill-rule:nonzero;fill:rgb(100%,100%,100%);fill-opacity:1;" d="M 133.566406 66.976562 L 142.566406 66.976562 L 142.566406 80.976562 L 133.566406 80.976562 Z M 133.566406 66.976562 "/>
<g style="fill:rgb(0%,0%,100%);fill-opacity:1;">
  <use xlink:href="#glyph0-2" x="133.566406" y="78.115234"/>
</g>
<path style="fill:none;stroke-width:1.2;stroke-linecap:butt;stroke-linejoin:miter;stroke:rgb(0%,0%,0%);stroke-opacity:1;stroke-miterlimit:10;" d="M 157.265625 95.726562 L 148.277344 123.664062 "/>
<path style="fill:none;stroke-width:1.2;stroke-linecap:butt;stroke-linejoin:miter;stroke:rgb(0%,0%,0%);stroke-opacity:1;stroke-miterlimit:10;" d="M 162.9375 100.636719 L 155.75 122.984375 "/>
<path style="fill:none;stroke-width:1.2;stroke-linecap:butt;stroke-linejoin:miter;stroke:rgb(0%,0%,0%);stroke-opacity:1;stroke-miterlimit:10;" d="M 185.953125 89.542969 L 157.265625 95.726562 "/>
<path style="fill:none;stroke-width:1.2;stroke-linecap:butt;stroke-linejoin:miter;stroke:rgb(0%,0%,0%);stroke-opacity:1;stroke-miterlimit:10;" d="M 148.277344 123.664062 L 167.976562 145.414062 "/>
<path style="fill:none;stroke-width:1.2;stroke-linecap:butt;stroke-linejoin:miter;stroke:rgb(0%,0%,0%);stroke-opacity:1;stroke-miterlimit:10;" d="M 167.976562 145.414062 L 196.664062 139.230469 "/>
<path style="fill:none;stroke-width:1.2;stroke-linecap:butt;stroke-linejoin:miter;stroke:rgb(0%,0%,0%);stroke-opacity:1;stroke-miterlimit:10;" d="M 169.390625 138.046875 L 192.339844 133.101562 "/>
<path style="fill:none;stroke-width:1.2;stroke-linecap:butt;stroke-linejoin:miter;stroke:rgb(0%,0%,0%);stroke-opacity:1;stroke-miterlimit:10;" d="M 196.664062 139.230469 L 205.652344 111.296875 "/>
<path style="fill:none;stroke-width:1.2;stroke-linecap:butt;stroke-linejoin:miter;stroke:rgb(0%,0%,0%);stroke-opacity:1;stroke-miterlimit:10;" d="M 196.664062 139.230469 L 216.363281 160.984375 "/>
<path style="fill:none;stroke-width:1.2;stroke-linecap:butt;stroke-linejoin:miter;stroke:rgb(0%,0%,0%);stroke-opacity:1;stroke-miterlimit:10;" d="M 205.652344 111.296875 L 185.953125 89.542969 "/>
<path style="fill:none;stroke-width:1.2;stroke-linecap:butt;stroke-linejoin:miter;stroke:rgb(0%,0%,0%);stroke-opacity:1;stroke-miterlimit:10;" d="M 198.5625 113.753906 L 182.804688 96.351562 "/>
<path style="fill:none;stroke-width:1.2;stroke-linecap:butt;stroke-linejoin:miter;stroke:rgb(0%,0%,0%);stroke-opacity:1;stroke-miterlimit:10;" d="M 216.363281 160.984375 L 207.375 188.917969 "/>
<path style="fill:none;stroke-width:1.2;stroke-linecap:butt;stroke-linejoin:miter;stroke:rgb(0%,0%,0%);stroke-opacity:1;stroke-miterlimit:10;" d="M 222.039062 165.890625 L 214.847656 188.242188 "/>
<path style="fill:none;stroke-width:1.2;stroke-linecap:butt;stroke-linejoin:miter;stroke:rgb(0%,0%,0%);stroke-opacity:1;stroke-miterlimit:10;" d="M 245.050781 154.800781 L 216.363281 160.984375 "/>
<path style="fill:none;stroke-width:1.2;stroke-linecap:butt;stroke-linejoin:miter;stroke:rgb(0%,0%,0%);stroke-opacity:1;stroke-miterlimit:10;" d="M 207.375 188.917969 L 217.226562 199.796875 "/>
<path style="fill:none;stroke-width:1.2;stroke-linecap:butt;stroke-linejoin:miter;stroke:rgb(0%,0%,100%);stroke-opacity:1;stroke-miterlimit:10;" d="M 217.226562 199.796875 L 227.074219 210.671875 "/>
<path style="fill:none;stroke-width:1.2;stroke-linecap:butt;stroke-linejoin:miter;stroke:rgb(0%,0%,100%);stroke-opacity:1;stroke-miterlimit:10;" d="M 227.074219 210.671875 L 241.417969 207.578125 "/>
<path style="fill:none;stroke-width:1.2;stroke-linecap:butt;stroke-linejoin:miter;stroke:rgb(0%,0%,0%);stroke-opacity:1;stroke-miterlimit:10;" d="M 241.417969 207.578125 L 255.761719 204.488281 "/>
<path style="fill:none;stroke-width:1.2;stroke-linecap:butt;stroke-linejoin:miter;stroke:rgb(0%,0%,100%);stroke-opacity:1;stroke-miterlimit:10;" d="M 228.488281 203.304688 L 239.964844 200.828125 "/>
<path style="fill:none;stroke-width:1.2;stroke-linecap:butt;stroke-linejoin:miter;stroke:rgb(0%,0%,0%);stroke-opacity:1;stroke-miterlimit:10;" d="M 239.964844 200.828125 L 251.4375 198.355469 "/>
<path style=" stroke:none;fill-rule:nonzero;fill:rgb(100%,100%,100%);fill-opacity:1;" d="M 223.074219 203.671875 L 232.074219 203.671875 L 232.074219 217.671875 L 223.074219 217.671875 Z M 223.074219 203.671875 "/>
<g style="fill:rgb(0%,0%,100%);fill-opacity:1;">
  <use xlink:href="#glyph0-2" x="223.074219" y="214.810547"/>
</g>
<path style="fill:none;stroke-width:1.2;stroke-linecap:butt;stroke-linejoin:miter;stroke:rgb(0%,0%,0%);stroke-opacity:1;stroke-miterlimit:10;" d="M 255.761719 204.488281 L 264.75 176.550781 "/>
<path style="fill:none;stroke-width:1.2;stroke-linecap:butt;stroke-linejoin:miter;stroke:rgb(0%,0%,0%);stroke-opacity:1;stroke-miterlimit:10;" d="M 264.75 176.550781 L 245.050781 154.800781 "/>
<path style="fill:none;stroke-width:1.2;stroke-linecap:butt;stroke-linejoin:miter;stroke:rgb(0%,0%,0%);stroke-opacity:1;stroke-miterlimit:10;" d="M 257.660156 179.011719 L 241.902344 161.609375 "/>
</g>
</svg>

<svg xmlns="http://www.w3.org/2000/svg" xmlns:xlink="http://www.w3.org/1999/xlink" width="300pt" height="300pt" viewBox="0 0 300 300"><defs><symbol overflow="visible"><path d="M.594 2.125V-8.47h6V2.126zm.672-.672h4.671V-7.78h-4.67zm0 0"/></symbol><symbol overflow="visible" id="a"><path d="M4.734-7.953c-.867 0-1.554.324-2.062.97-.5.635-.75 1.51-.75 2.624 0 1.094.25 1.965.75 2.61.508.637 1.195.953 2.062.953.852 0 1.532-.316 2.032-.953.507-.645.765-1.516.765-2.61 0-1.113-.257-1.988-.764-2.624-.5-.645-1.18-.97-2.032-.97zm0-.953c1.22 0 2.192.414 2.922 1.234.74.824 1.11 1.93 1.11 3.313 0 1.376-.37 2.477-1.11 3.298C6.926-.24 5.953.17 4.734.17c-1.23 0-2.214-.41-2.953-1.234C1.04-1.882.673-2.984.673-4.36c0-1.382.367-2.488 1.11-3.312.738-.82 1.722-1.234 2.952-1.234zm0 0"/></symbol><symbol overflow="visible" id="b"><path d="M1.172-8.75h1.594l3.89 7.313V-8.75h1.14V0H6.204L2.328-7.313V0H1.172zm0 0"/></symbol><symbol overflow="visible" id="c"><path d="M1.172-8.75H2.36v3.594h4.296V-8.75h1.188V0H6.656v-4.172H2.36V0H1.17zm0 0"/></symbol></defs><g><path fill="#fff" d="M0 0h300v300H0z"/><path d="M35.25 226.023l4.492-13.968" stroke-width="1.2" stroke="#000" stroke-miterlimit="10" fill="none"/><path d="M39.742 212.055l4.496-13.965M44.238 198.09l14.344-3.094" stroke-width="1.2" stroke="#f00" stroke-miterlimit="10" fill="none"/><path d="M58.582 194.996l14.344-3.094" stroke-width="1.2" stroke="#000" stroke-miterlimit="10" fill="none"/><path d="M39.238 191.09h10v14h-10zm0 0" fill="#fff"/><use xlink:href="#a" x="39.238" y="202.229" fill="#f00"/><path d="M72.926 191.902l8.988-27.933M81.914 163.97l14.344-3.095" stroke-width="1.2" stroke="#000" stroke-miterlimit="10" fill="none"/><path d="M96.258 160.875l14.344-3.09M110.602 157.785l4.492-13.97" stroke-width="1.2" stroke="#00f" stroke-miterlimit="10" fill="none"/><path d="M115.094 143.816l4.496-13.968" stroke-width="1.2" stroke="#000" stroke-miterlimit="10" fill="none"/><path d="M101.602 150.785h18v14h-18zm0 0" fill="#fff"/><g fill="#00f"><use xlink:href="#b" x="101.602" y="161.924"/><use xlink:href="#c" x="110.578" y="161.924"/></g><path d="M119.59 129.848l-9.852-10.875" stroke-width="1.2" stroke="#000" stroke-miterlimit="10" fill="none"/><path d="M109.738 118.973l-9.847-10.875" stroke-width="1.2" stroke="#00f" stroke-miterlimit="10" fill="none"/><path d="M122.738 123.04l-7.88-8.704" stroke-width="1.2" stroke="#000" stroke-miterlimit="10" fill="none"/><path d="M114.86 114.336l-7.883-8.7" stroke-width="1.2" stroke="#00f" stroke-miterlimit="10" fill="none"/><path d="M148.277 123.664l-28.687 6.184" stroke-width="1.2" stroke="#000" stroke-miterlimit="10" fill="none"/><path d="M99.89 108.098l4.493-13.97" stroke-width="1.2" stroke="#00f" stroke-miterlimit="10" fill="none"/><path d="M104.383 94.13l4.496-13.97" stroke-width="1.2" stroke="#000" stroke-miterlimit="10" fill="none"/><path d="M95.89 101.098h9v14h-9zm0 0" fill="#fff"/><use xlink:href="#b" x="95.891" y="112.236" fill="#00f"/><path d="M108.88 80.16l14.343-3.094" stroke-width="1.2" stroke="#000" stroke-miterlimit="10" fill="none"/><path d="M123.223 77.066l14.343-3.09" stroke-width="1.2" stroke="#00f" stroke-miterlimit="10" fill="none"/><path d="M113.203 86.293l11.473-2.477" stroke-width="1.2" stroke="#000" stroke-miterlimit="10" fill="none"/><path d="M124.676 83.816l11.476-2.472M137.566 73.977l9.848 10.875" stroke-width="1.2" stroke="#00f" stroke-miterlimit="10" fill="none"/><path d="M147.414 84.852l9.852 10.875" stroke-width="1.2" stroke="#000" stroke-miterlimit="10" fill="none"/><path d="M133.566 66.977h9v14h-9zm0 0" fill="#fff"/><use xlink:href="#b" x="133.566" y="78.115" fill="#00f"/><path d="M157.266 95.727l-8.99 27.937M162.938 100.637l-7.188 22.347M185.953 89.543l-28.687 6.184M148.277 123.664l19.7 21.75M167.977 145.414l28.687-6.184M169.39 138.047l22.95-4.945M196.664 139.23l8.988-27.933M196.664 139.23l19.7 21.754M205.652 111.297l-19.7-21.754M198.563 113.754l-15.758-17.402M216.363 160.984l-8.988 27.934M222.04 165.89l-7.192 22.352M245.05 154.8l-28.687 6.184M207.375 188.918l9.852 10.88" stroke-width="1.2" stroke="#000" stroke-miterlimit="10" fill="none"/><path d="M217.227 199.797l9.847 10.875M227.074 210.672l14.344-3.094" stroke-width="1.2" stroke="#00f" stroke-miterlimit="10" fill="none"/><path d="M241.418 207.578l14.344-3.09" stroke-width="1.2" stroke="#000" stroke-miterlimit="10" fill="none"/><path d="M228.488 203.305l11.477-2.477" stroke-width="1.2" stroke="#00f" stroke-miterlimit="10" fill="none"/><path d="M239.965 200.828l11.472-2.473" stroke-width="1.2" stroke="#000" stroke-miterlimit="10" fill="none"/><path d="M223.074 203.672h9v14h-9zm0 0" fill="#fff"/><use xlink:href="#b" x="223.074" y="214.811" fill="#00f"/><path d="M255.762 204.488l8.988-27.937M264.75 176.55l-19.7-21.75M257.66 179.012l-15.758-17.403" stroke-width="1.2" stroke="#000" stroke-miterlimit="10" fill="none"/></g></svg>
